frontend/public/assets/material-icons/storybook.svg

<svg xmlns="http://www.w3.org/2000/svg" viewBox="0 0 32 32">
  <path d="M24.95006,28.9475l-18-.9A1,1,0,0,1,6,27.04875V6.905a1,1,0,0,1,.9005-.995l18-1.905A1,1,0,0,1,26,5V27.94875A1,1,0,0,1,24.95006,28.9475Z" style="fill: #ff4081"/>
  <path d="M20.00016,8.51979l.18956-4.2417,3.649-.27544.16113,4.37024a.27943.27943,0,0,1-.27673.28261.29023.29023,0,0,1-.1877-.06226L22.12324,7.519,20.45511,8.74932A.29046.29046,0,0,1,20.057,8.6945.26956.26956,0,0,1,20.00016,8.51979Z" style="fill: #fff"/>
  <path d="M17.87243,15.16673c0,.48731,3.44727.2499,3.91171-.09371,0-3.3237-1.87082-5.073-5.29847-5.073-3.42112,0-5.34427,1.77431-5.34427,4.43577,0,4.64193,6.56095,4.73565,6.56095,7.26591A1.0225,1.0225,0,0,1,16.538,22.83249c-1.04661,0-1.45871-.5123-1.41292-2.24288,0-.37485-3.98367-.49355-4.10141,0C10.71622,24.788,13.45049,26,16.58378,26,19.619,26,22,24.45061,22,21.658c0-4.97306-6.65253-4.84186-6.65253-7.30965a1.07968,1.07968,0,0,1,1.24286-1.13081C17.06784,13.21749,17.94438,13.29871,17.87243,15.16673Z" style="fill: #fff"/>
</svg>

<svg xmlns="http://www.w3.org/2000/svg" viewBox="0 0 32 32"><path fill="#ff4081" d="m24.95 28.948-18-.9a1 1 0 0 1-.95-1V6.906a1 1 0 0 1 .9-.995l18-1.905A1 1 0 0 1 26 5v22.949a1 1 0 0 1-1.05.998Z"/><path fill="#FAFAFA" d="m20 8.52.19-4.242 3.649-.275.16 4.37a.28.28 0 0 1-.276.283.3.3 0 0 1-.188-.063L22.123 7.52l-1.668 1.23a.29.29 0 0 1-.398-.055A.27.27 0 0 1 20 8.52m-2.128 6.647c0 .487 3.448.25 3.912-.094 0-3.324-1.87-5.073-5.298-5.073-3.421 0-5.345 1.774-5.345 4.436 0 4.642 6.561 4.735 6.561 7.266a1.022 1.022 0 0 1-1.164 1.13c-1.047 0-1.459-.512-1.413-2.242 0-.375-3.984-.494-4.101 0-.308 4.198 2.426 5.41 5.56 5.41C19.619 26 22 24.45 22 21.658c0-4.973-6.653-4.842-6.653-7.31a1.08 1.08 0 0 1 1.243-1.13c.478 0 1.354.08 1.282 1.949"/></svg>
